src/asset/site/download_apple.svg

<svg width="183" height="53" viewBox="0 0 183 53" fill="none" xmlns="http://www.w3.org/2000/svg">
<path d="M183 46.8246C183 48.208 182.445 49.5346 181.456 50.5123C180.468 51.49 179.127 52.0386 177.73 52.0371H5.2766C2.36599 52.0401 0.00379322 49.7066 0 46.8246V5.25643C0.00379121 2.37331 2.36487 0.0378577 5.2766 0.0371094H177.729C179.127 0.0371093 180.467 0.587044 181.456 1.5659C182.444 2.54475 182.999 3.87231 182.999 5.25643L183 46.8246Z" fill="white"/>
<path d="M183 46.8246C183 48.208 182.445 49.5346 181.456 50.5123C180.468 51.49 179.127 52.0386 177.73 52.0371H5.2766C2.36599 52.0401 0.00379322 49.7066 0 46.8246V5.25643C0.00379121 2.37331 2.36487 0.0378577 5.2766 0.0371094H177.729C179.127 0.0371093 180.467 0.587044 181.456 1.5659C182.444 2.54475 182.999 3.87231 182.999 5.25643L183 46.8246Z" fill="black"/>
<path fill-rule="evenodd" clip-rule="evenodd" d="M37.8314 7.03711C38.0553 9.1665 37.2486 11.2648 36.0696 12.8072C34.8393 14.3256 32.8711 15.4869 30.9542 15.3373C30.7033 13.2884 31.6746 11.1096 32.7619 9.78034C33.9908 8.27184 36.1249 7.11613 37.8314 7.03711ZM44.1067 19.3208C43.8928 19.4544 40.3476 21.6678 40.3864 26.1818C40.4323 31.6316 44.946 33.435 45 33.4548C44.973 33.5818 44.2931 36.0569 42.6001 38.5673C41.1864 40.7785 39.7052 42.9418 37.3525 42.9799C36.234 43.0068 35.4788 42.6707 34.6918 42.3204C33.8709 41.9551 33.0155 41.5744 31.6773 41.5744C30.259 41.5744 29.3658 41.9674 28.5044 42.3464C27.7591 42.6743 27.0378 42.9917 26.0209 43.0349C23.7802 43.121 22.0683 40.6755 20.6033 38.4826C17.6746 34.0079 15.3948 25.8728 18.4517 20.337C19.9329 17.622 22.6336 15.8736 25.5204 15.827C26.7917 15.7998 28.0109 16.3123 29.0798 16.7616C29.8972 17.1051 30.6266 17.4117 31.224 17.4117C31.7487 17.4117 32.4577 17.1174 33.2839 16.7743C34.5861 16.2337 36.1797 15.5721 37.8031 15.7508C38.9133 15.7847 42.0727 16.2094 44.111 19.3181L44.1067 19.3208Z" fill="white"/>
<path fill-rule="evenodd" clip-rule="evenodd" d="M119.052 40.8476C120.14 39.9121 120.688 38.7002 120.688 37.2095C120.688 36.0002 120.314 34.9858 119.563 34.1726C118.818 33.3595 117.653 32.6516 116.068 32.0437C114.776 31.5595 113.882 31.1081 113.392 30.6937C112.828 30.2437 112.544 29.67 112.544 28.9792C112.544 28.3529 112.793 27.8252 113.285 27.3924C113.868 26.9081 114.684 26.6647 115.725 26.6647C117.042 26.6647 118.219 26.9331 119.262 27.47L120.002 25.1831C118.894 24.6292 117.498 24.3516 115.823 24.3516C113.947 24.3516 112.439 24.8108 111.302 25.7292C110.165 26.6489 109.595 27.8252 109.595 29.2621C109.595 31.4621 111.208 33.1345 114.431 34.2779C115.617 34.6924 116.461 35.1437 116.971 35.6279C117.479 36.1134 117.737 36.7095 117.737 37.4213C117.737 38.216 117.425 38.8529 116.806 39.3292C116.189 39.8042 115.325 40.0437 114.213 40.0437C112.666 40.0437 111.246 39.6805 109.952 38.9516L109.27 41.2897C110.468 42.0174 112.056 42.3805 114.037 42.3805C116.181 42.3805 117.854 41.8687 119.052 40.8476ZM73.1371 42.1213H69.9956L68.2748 36.9779H62.2934L60.6542 42.1213H57.5957L63.5231 24.6108H67.1833L73.1371 42.1213ZM67.756 34.82L66.1998 30.2476C66.0352 29.7805 65.7253 28.6805 65.2716 26.9489H65.2163C65.0337 27.6937 64.7418 28.7937 64.342 30.2476L62.8121 34.82H67.756ZM86.5108 40.7437C87.7378 39.4976 88.3506 37.8002 88.3506 35.6529C88.3506 33.7305 87.8263 32.1805 86.7819 31.0002C85.7361 29.8226 84.4289 29.2345 82.863 29.2345C80.86 29.2345 79.3674 29.9884 78.3839 31.4963H78.3286L78.164 29.495H75.5703C75.6422 30.9134 75.6796 32.2963 75.6796 33.645V47.241H78.6288V40.616C79.3965 41.8108 80.6608 42.4068 82.419 42.4068C84.0471 42.4068 85.4125 41.8529 86.5108 40.7437ZM85.3461 35.7555C85.3461 34.5266 85.0556 33.5134 84.4718 32.7147C83.8341 31.8845 82.9778 31.4687 81.9044 31.4687C81.1768 31.4687 80.5156 31.7002 79.9249 32.1568C79.3329 32.6174 78.9455 33.2187 78.7643 33.9634C78.6834 34.2419 78.6375 34.5286 78.6274 34.8174V36.9239C78.6274 37.841 78.9234 38.616 79.5154 39.2502C80.1075 39.8818 80.8766 40.1989 81.8228 40.1989C82.9336 40.1989 83.7981 39.7897 84.4165 38.9779C85.0362 38.1634 85.3461 37.0897 85.3461 35.7555ZM101.778 40.7437C103.005 39.4976 103.618 37.8002 103.618 35.6529C103.618 33.7305 103.092 32.1805 102.049 31.0002C101.001 29.8226 99.6936 29.2345 98.1291 29.2345C96.1247 29.2345 94.6321 29.9884 93.65 31.4963H93.5947L93.43 29.495H90.8364C90.9083 30.9134 90.9456 32.2963 90.9456 33.645V47.241H93.8948V40.616C94.6626 41.8108 95.9269 42.4068 97.6851 42.4068C99.3146 42.4068 100.679 41.8529 101.778 40.7437ZM100.612 35.7555C100.612 34.5266 100.32 33.5134 99.7365 32.7147C99.0988 31.8845 98.2453 31.4687 97.1719 31.4687C96.4443 31.4687 95.783 31.7002 95.1896 32.1568C94.5976 32.6174 94.2116 33.2187 94.0304 33.9634C93.9405 34.3108 93.8921 34.5937 93.8921 34.8174V36.9239C93.8921 37.841 94.1895 38.616 94.7788 39.2502C95.3708 39.8805 96.1399 40.1989 97.0889 40.1989C98.201 40.1989 99.0656 39.7897 99.6826 38.9779C100.302 38.1634 100.612 37.0897 100.612 35.7555ZM130.464 31.6002H127.213V37.7305C127.213 39.2897 127.786 40.0674 128.934 40.0674C129.461 40.0674 129.898 40.0252 130.244 39.9371L130.325 42.0674C129.744 42.2739 128.979 42.3779 128.032 42.3779C126.867 42.3779 125.957 42.0397 125.3 41.3634C124.646 40.6871 124.316 39.5542 124.316 37.9595V31.595H122.38V29.4897H124.316V27.1779L127.213 26.3463V29.4897H130.464V31.6002ZM143.353 40.4845C144.518 39.2384 145.102 37.645 145.102 35.7042C145.102 33.8147 144.539 32.2752 143.407 31.0831C142.223 29.8542 140.659 29.2384 138.711 29.2384C136.69 29.2384 135.083 29.8621 133.889 31.1095C132.698 32.3555 132.1 33.9581 132.1 35.9147C132.1 37.7845 132.678 39.3345 133.835 40.5647C134.991 41.7924 136.542 42.4068 138.492 42.4068C140.513 42.4068 142.135 41.7674 143.353 40.4845ZM142.045 35.7687C142.045 34.6121 141.782 33.62 141.255 32.7897C140.636 31.7871 139.751 31.2858 138.604 31.2858C137.423 31.2858 136.517 31.7871 135.9 32.7897C135.372 33.62 135.109 34.6292 135.109 35.8213C135.109 36.9792 135.372 37.9739 135.9 38.8016C136.538 39.8042 137.427 40.3055 138.58 40.3055C139.707 40.3055 140.591 39.7937 141.23 38.7766C141.772 37.9266 142.045 36.9279 142.045 35.7687ZM153.763 31.8845C154.074 31.8834 154.385 31.9094 154.692 31.9621L154.689 29.2858C154.471 29.2529 154.225 29.2345 153.952 29.2345C153.184 29.2355 152.436 29.4727 151.82 29.9108C151.148 30.4121 150.658 31.0818 150.346 31.9121H150.264L150.156 29.4963H147.588C147.647 30.8205 147.676 32.1459 147.673 33.4713V42.1213H150.623V35.4963C150.623 34.4924 150.869 33.6608 151.358 33.0029C151.923 32.2555 152.725 31.8845 153.763 31.8845ZM167.882 35.2108C167.889 35.6372 167.853 36.0633 167.774 36.4831H158.926C158.96 37.7305 159.388 38.6858 160.21 39.3437C160.956 39.9305 161.92 40.2252 163.104 40.2252C164.414 40.2252 165.609 40.0279 166.684 39.6292L167.146 41.5752C165.89 42.0963 164.407 42.3555 162.696 42.3555C160.638 42.3555 159.022 41.7792 157.846 40.6292C156.673 39.4779 156.085 37.9305 156.085 35.9924C156.085 34.0897 156.632 32.5042 157.726 31.2397C158.871 29.8897 160.419 29.2147 162.367 29.2147C164.28 29.2147 165.728 29.8897 166.712 31.2397C167.49 32.3095 167.882 33.6358 167.882 35.2108ZM164.497 32.3266C164.897 32.9331 165.09 33.6502 165.07 34.4831L158.928 34.4805C159.018 33.6345 159.31 32.9055 159.801 32.2989C160.398 31.5358 161.184 31.1555 162.148 31.1555C163.201 31.1555 163.987 31.545 164.497 32.3266Z" fill="white"/>
<path fill-rule="evenodd" clip-rule="evenodd" d="M97.774 17.2574H96.326V7.79736H97.774V17.2574ZM59.9355 17.2299C60.525 17.2972 61.2331 17.3371 62.0516 17.3371C65.5205 17.3371 67.3564 15.6569 67.3564 12.5466C67.3564 9.85024 65.8021 8.19611 62.4271 8.19611C61.593 8.19374 60.7599 8.25626 59.9355 8.38311V17.2299ZM61.3808 9.42399C61.7024 9.35799 62.0903 9.33049 62.5458 9.33049C64.6895 9.33049 65.8283 10.4924 65.8283 12.5865C65.8283 14.935 64.5694 16.189 62.3581 16.189C61.8888 16.189 61.5547 16.1766 61.3808 16.1491V9.42399ZM72.2001 17.4045C70.2979 17.4045 69.0653 15.9896 69.0653 14.0687C69.0653 12.0667 70.3241 10.6395 72.3077 10.6395C74.1823 10.6395 75.4425 11.987 75.4425 13.9629C75.4425 15.9896 74.1436 17.4045 72.2001 17.4045ZM70.5409 14.0275C70.5409 12.6662 71.2103 11.6927 72.2553 11.6927C73.2726 11.6927 73.9421 12.68 73.9421 14C73.9421 15.2952 73.2588 16.3361 72.2415 16.3361C71.2241 16.3361 70.5409 15.3626 70.5409 14.0275ZM86.2894 10.7729L84.2534 17.2574H82.9268L82.0834 14.4414C81.8737 13.7526 81.6991 13.0536 81.5603 12.3472H81.5327C81.4264 13.054 81.2249 13.7621 81.0109 14.4414L80.1137 17.2574H78.7733L76.8574 10.7729H78.344L79.0812 13.8556C79.2551 14.5899 79.4014 15.2829 79.5229 15.9374H79.5505C79.6568 15.3915 79.8307 14.7095 80.0861 13.8694L81.0109 10.7742H82.1897L83.0745 13.8034C83.2885 14.5376 83.4624 15.2581 83.5977 15.9387H83.6364C83.7302 15.2719 83.8779 14.5637 84.0781 13.8034L84.869 10.7742L86.2894 10.7729ZM92.3382 17.2574H93.7848L93.7861 13.3744C93.7861 11.6804 92.8889 10.6395 91.5224 10.6395C90.6375 10.6395 89.848 11.0795 89.4587 11.7725H89.4187L89.351 10.7715H88.0784C88.1184 11.4384 88.1322 12.053 88.1322 12.6264V17.2574H89.5788V13.4005C89.5788 12.5466 90.1682 11.8124 91.0254 11.8124C91.8964 11.8124 92.3382 12.3871 92.3382 13.5339V17.2574ZM99.9136 14.0687C99.9136 15.9896 101.148 17.4045 103.048 17.4045C104.991 17.4045 106.291 15.9896 106.289 13.9629C106.289 11.987 105.031 10.6395 103.155 10.6395C101.172 10.6395 99.9136 12.0667 99.9136 14.0687ZM103.102 11.6927C102.057 11.6927 101.388 12.6662 101.388 14.0275C101.388 15.3626 102.072 16.3361 103.087 16.3361C104.106 16.3361 104.788 15.2952 104.788 14C104.789 12.68 104.121 11.6927 103.102 11.6927ZM111.888 16.5107L111.993 17.2574L113.298 17.2587C113.233 16.8724 113.204 16.365 113.204 15.7105V13.3221C113.204 11.5332 112.345 10.6395 110.645 10.6395C109.762 10.6395 109.012 10.8265 108.41 11.2005L108.704 12.1479C109.199 11.8275 109.762 11.6666 110.404 11.6666C111.302 11.6666 111.756 12.0942 111.756 12.9481V13.0677C109.344 13.0677 107.951 13.8955 107.951 15.496C107.951 16.5905 108.78 17.4045 109.946 17.4045C110.763 17.4045 111.408 17.1116 111.85 16.5107H111.888ZM111.794 14.0275C110.188 14.0275 109.381 14.4152 109.381 15.3351C109.381 16.0157 109.797 16.3485 110.374 16.3485C111.11 16.3485 111.794 15.7889 111.794 15.0285V14.0275ZM120.161 16.2165L120.228 17.2574H121.516C121.478 16.7239 121.462 16.1367 121.462 15.5097V7.79736H120.014V11.5195H119.985C119.638 10.931 119.021 10.6381 118.15 10.6381C116.504 10.6381 115.299 12.0667 115.299 14.0949C115.299 16.0295 116.461 17.4045 118.031 17.4045C119.007 17.4045 119.705 17.003 120.121 16.2165H120.161ZM120.014 13.4417C120.014 12.5342 119.411 11.7601 118.49 11.7601C117.418 11.7601 116.762 12.7075 116.762 14.0412C116.762 15.3489 117.443 16.244 118.461 16.244C119.371 16.244 120.014 15.4561 120.014 14.5225V13.4417ZM127.51 14.0687C127.51 15.9896 128.742 17.4045 130.643 17.4045C132.588 17.4045 133.887 15.9896 133.886 13.9629C133.886 11.987 132.627 10.6395 130.751 10.6395C128.769 10.6395 127.51 12.0667 127.51 14.0687ZM130.697 11.6927C129.653 11.6927 128.984 12.6662 128.984 14.0275C128.984 15.3626 129.667 16.3361 130.683 16.3361C131.702 16.3361 132.384 15.2952 132.384 14C132.387 12.68 131.717 11.6927 130.697 11.6927ZM140.217 17.2574H141.665V13.373C141.665 11.679 140.767 10.6381 139.4 10.6381C138.517 10.6381 137.726 11.0795 137.338 11.7725H137.298L137.23 10.7715H135.958C135.998 11.4384 136.011 12.053 136.011 12.6264V17.2574H137.459V13.4005C137.459 12.5466 138.047 11.8124 138.905 11.8124C139.776 11.8124 140.217 12.3871 140.217 13.5339V17.2574ZM151.398 11.8536H149.807V15.0024C149.807 15.804 150.086 16.2041 150.649 16.2041C150.904 16.2041 151.118 16.1766 151.291 16.1367L151.331 17.2312C151.05 17.3385 150.675 17.3921 150.208 17.3921C149.068 17.3921 148.386 16.7651 148.386 15.1234V11.8536H147.437V10.7729H148.386V9.58486L149.807 9.15724V10.7715H151.398V11.8536ZM157.611 17.2574H159.057V13.4005C159.057 11.7051 158.215 10.6381 156.837 10.6381C155.995 10.6381 155.335 10.986 154.88 11.6927H154.851V7.79736H153.405V17.2574H154.851V13.3482C154.851 12.3211 155.549 11.8137 156.299 11.8137C157.171 11.8137 157.611 12.4009 157.611 13.5614V17.2574ZM166.903 14.3616H162.561C162.589 15.5895 163.405 16.2825 164.612 16.2825C165.254 16.2825 165.845 16.1752 166.367 15.9759L166.592 16.9769C165.976 17.2436 165.252 17.377 164.408 17.377C162.372 17.377 161.167 16.0955 161.167 14.1086C161.167 12.1204 162.401 10.6257 164.245 10.6257C165.909 10.6257 166.952 11.8536 166.952 13.7085C166.962 13.9274 166.945 14.1466 166.903 14.3616ZM164.145 11.6267C165.069 11.6267 165.576 12.3335 165.576 13.3345H162.563C162.657 12.3472 163.314 11.6267 164.145 11.6267Z" fill="white"/>
</svg>

<svg width="183" height="53" fill="none" xmlns="http://www.w3.org/2000/svg"><path d="M183 46.825c0 1.383-.555 2.71-1.544 3.687a5.29 5.29 0 01-3.726 1.525H5.277C2.366 52.04.004 49.707 0 46.825V5.256C.004 2.373 2.365.038 5.277.037h172.452c1.398 0 2.738.55 3.727 1.529a5.195 5.195 0 011.543 3.69L183 46.825z" fill="#fff"/><path d="M183 46.825c0 1.383-.555 2.71-1.544 3.687a5.29 5.29 0 01-3.726 1.525H5.277C2.366 52.04.004 49.707 0 46.825V5.256C.004 2.373 2.365.038 5.277.037h172.452c1.398 0 2.738.55 3.727 1.529a5.195 5.195 0 011.543 3.69L183 46.825z" fill="#000"/><path fill-rule="evenodd" clip-rule="evenodd" d="M37.831 7.037c.224 2.13-.582 4.228-1.761 5.77-1.23 1.519-3.199 2.68-5.116 2.53-.25-2.049.72-4.227 1.808-5.557 1.229-1.508 3.363-2.664 5.07-2.743zm6.276 12.284c-.214.133-3.76 2.347-3.72 6.86.045 5.45 4.559 7.254 4.613 7.274-.027.127-.707 2.602-2.4 5.112-1.414 2.212-2.895 4.375-5.248 4.413-1.118.027-1.873-.31-2.66-.66-.821-.365-1.676-.746-3.015-.746-1.418 0-2.311.393-3.173.772-.745.328-1.466.646-2.483.689-2.24.086-3.953-2.36-5.418-4.552-2.928-4.475-5.208-12.61-2.151-18.146 1.48-2.715 4.182-4.463 7.068-4.51 1.272-.027 2.49.485 3.56.935.817.343 1.547.65 2.144.65.525 0 1.234-.295 2.06-.638 1.302-.54 2.896-1.202 4.52-1.023 1.11.034 4.269.458 6.307 3.567l-.004.003zM119.052 40.848c1.088-.936 1.636-2.148 1.636-3.639 0-1.209-.374-2.223-1.125-3.036-.745-.814-1.91-1.521-3.495-2.13-1.292-.483-2.186-.935-2.676-1.35-.564-.45-.848-1.023-.848-1.714 0-.626.249-1.154.741-1.587.583-.484 1.399-.727 2.44-.727 1.317 0 2.494.268 3.537.805l.74-2.287c-1.108-.554-2.504-.831-4.179-.831-1.876 0-3.384.459-4.521 1.377-1.137.92-1.707 2.096-1.707 3.533 0 2.2 1.613 3.873 4.836 5.016 1.186.414 2.03.866 2.54 1.35.508.485.766 1.081.766 1.793 0 .795-.312 1.432-.931 1.908-.617.475-1.481.715-2.593.715-1.547 0-2.967-.363-4.261-1.092l-.682 2.338c1.198.727 2.786 1.09 4.767 1.09 2.144 0 3.817-.511 5.015-1.532zM73.137 42.12h-3.141l-1.721-5.143h-5.982l-1.639 5.143h-3.058l5.927-17.51h3.66l5.954 17.51zm-5.381-7.301L66.2 30.248c-.165-.468-.475-1.568-.928-3.3h-.056c-.182.746-.474 1.846-.874 3.3l-1.53 4.572h4.944zm18.755 5.924c1.227-1.246 1.84-2.944 1.84-5.091 0-1.922-.525-3.472-1.57-4.653-1.045-1.177-2.352-1.765-3.918-1.765-2.003 0-3.496.753-4.48 2.261h-.054l-.165-2.001H75.57c.072 1.418.11 2.801.11 4.15v13.596h2.949v-6.625c.767 1.195 2.032 1.79 3.79 1.79 1.628 0 2.993-.553 4.092-1.662zm-1.165-4.989c0-1.228-.29-2.242-.874-3.04-.638-.83-1.494-1.246-2.568-1.246-.727 0-1.388.231-1.98.688a3.172 3.172 0 00-1.16 1.806c-.08.279-.126.566-.137.854v2.107c0 .917.296 1.692.888 2.326.593.632 1.362.949 2.308.949 1.11 0 1.975-.41 2.594-1.221.62-.815.93-1.888.93-3.223zm16.432 4.989c1.227-1.246 1.84-2.944 1.84-5.091 0-1.922-.526-3.472-1.569-4.653-1.048-1.177-2.355-1.765-3.92-1.765-2.004 0-3.497.753-4.479 2.261h-.055l-.165-2.001h-2.594a82.02 82.02 0 01.11 4.15v13.596h2.949v-6.625c.768 1.195 2.032 1.79 3.79 1.79 1.63 0 2.994-.553 4.093-1.662zm-1.166-4.989c0-1.228-.292-2.242-.875-3.04-.638-.83-1.492-1.246-2.565-1.246-.728 0-1.389.231-1.982.688a3.17 3.17 0 00-1.16 1.806c-.09.348-.138.63-.138.854v2.107c0 .917.297 1.692.887 2.326.592.63 1.36.949 2.31.949 1.112 0 1.977-.41 2.594-1.221.619-.815.929-1.888.929-3.223zm29.852-4.155h-3.251v6.13c0 1.56.573 2.337 1.721 2.337.527 0 .964-.042 1.31-.13l.081 2.13c-.581.207-1.346.31-2.293.31-1.165 0-2.075-.337-2.732-1.014-.654-.676-.984-1.809-.984-3.404v-6.364h-1.936V29.49h1.936v-2.312l2.897-.832v3.144h3.251v2.11zm12.889 8.884c1.165-1.246 1.749-2.839 1.749-4.78 0-1.89-.563-3.429-1.695-4.62-1.184-1.23-2.748-1.846-4.696-1.846-2.021 0-3.628.624-4.822 1.872-1.191 1.245-1.789 2.848-1.789 4.805 0 1.87.578 3.42 1.735 4.65 1.156 1.227 2.707 1.842 4.657 1.842 2.021 0 3.643-.64 4.861-1.922zm-1.308-4.715c0-1.157-.263-2.149-.79-2.98-.619-1.002-1.504-1.503-2.651-1.503-1.181 0-2.087.501-2.704 1.504-.528.83-.791 1.84-.791 3.031 0 1.158.263 2.153.791 2.98.638 1.003 1.527 1.505 2.68 1.505 1.127 0 2.011-.512 2.65-1.53.542-.85.815-1.848.815-3.007zm11.718-3.884a5.38 5.38 0 01.929.077l-.003-2.676a4.958 4.958 0 00-.737-.052 3.692 3.692 0 00-2.132.677c-.672.501-1.162 1.17-1.474 2.001h-.082l-.108-2.416h-2.568c.059 1.325.088 2.65.085 3.975v8.65h2.95v-6.625c0-1.004.246-1.835.735-2.493.565-.748 1.367-1.119 2.405-1.119zm14.119 3.326c.007.426-.029.852-.108 1.272h-8.848c.034 1.248.462 2.203 1.284 2.86.746.587 1.71.882 2.894.882 1.31 0 2.505-.197 3.58-.596l.462 1.946c-1.256.521-2.739.78-4.45.78-2.058 0-3.674-.576-4.85-1.726-1.173-1.151-1.761-2.698-1.761-4.637 0-1.902.547-3.488 1.641-4.752 1.145-1.35 2.693-2.025 4.641-2.025 1.913 0 3.361.675 4.345 2.025.778 1.07 1.17 2.396 1.17 3.97zm-3.385-2.884c.4.606.593 1.323.573 2.156l-6.142-.002c.09-.846.382-1.575.873-2.182.597-.763 1.383-1.143 2.347-1.143 1.053 0 1.839.389 2.349 1.17zM97.774 17.257h-1.448v-9.46h1.448v9.46zm-37.839-.027c.59.067 1.298.107 2.117.107 3.468 0 5.304-1.68 5.304-4.79 0-2.697-1.554-4.35-4.929-4.35-.834-.003-1.667.06-2.492.186v8.847zm1.446-7.806c.321-.066.71-.094 1.165-.094 2.143 0 3.282 1.162 3.282 3.256 0 2.349-1.259 3.603-3.47 3.603-.47 0-.803-.012-.977-.04V9.424zm10.82 7.98c-1.903 0-3.136-1.414-3.136-3.335 0-2.002 1.26-3.43 3.243-3.43 1.874 0 3.134 1.348 3.134 3.324 0 2.027-1.298 3.441-3.242 3.441zm-1.66-3.377c0-1.36.67-2.334 1.714-2.334 1.018 0 1.687.987 1.687 2.307 0 1.295-.683 2.336-1.7 2.336-1.018 0-1.701-.973-1.701-2.308zm15.748-3.254l-2.036 6.484h-1.326l-.844-2.816a21.274 21.274 0 01-.523-2.094h-.027c-.107.707-.308 1.415-.522 2.094l-.897 2.816h-1.34l-1.917-6.484h1.487l.737 3.083c.174.734.32 1.427.442 2.081h.028c.106-.545.28-1.227.535-2.068l.925-3.095h1.179l.885 3.03c.213.734.387 1.454.523 2.135h.038c.094-.667.242-1.375.442-2.136l.791-3.029 1.42-.001zm6.05 6.484h1.446l.001-3.883c0-1.694-.897-2.735-2.264-2.735-.885 0-1.674.44-2.063 1.134h-.04l-.068-1.002h-1.273c.04.667.054 1.282.054 1.855v4.631h1.447V13.4c0-.853.59-1.588 1.446-1.588.871 0 1.313.575 1.313 1.722v3.723zm7.575-3.188c0 1.92 1.234 3.335 3.134 3.335 1.943 0 3.243-1.414 3.241-3.441 0-1.976-1.258-3.323-3.134-3.323-1.983 0-3.241 1.427-3.241 3.429zm3.188-2.376c-1.045 0-1.714.973-1.714 2.335 0 1.335.684 2.308 1.699 2.308 1.019 0 1.701-1.04 1.701-2.336.001-1.32-.667-2.307-1.686-2.307zm8.786 4.818l.105.746 1.305.002c-.065-.387-.094-.894-.094-1.549v-2.388c0-1.789-.859-2.682-2.559-2.682-.883 0-1.633.186-2.235.56l.294.948c.495-.32 1.058-.481 1.7-.481.898 0 1.352.427 1.352 1.281v.12c-2.412 0-3.805.828-3.805 2.428 0 1.094.829 1.908 1.995 1.908.817 0 1.462-.292 1.904-.893h.038zm-.094-2.483c-1.606 0-2.413.387-2.413 1.307 0 .68.416 1.014.993 1.014.736 0 1.42-.56 1.42-1.32v-1.002zm8.367 2.188l.067 1.041h1.288a24.905 24.905 0 01-.054-1.747V7.797h-1.448v3.723h-.029c-.347-.589-.964-.882-1.835-.882-1.646 0-2.851 1.429-2.851 3.457 0 1.934 1.162 3.31 2.732 3.31.976 0 1.674-.402 2.09-1.189h.04zm-.147-2.774c0-.908-.603-1.682-1.524-1.682-1.072 0-1.728.947-1.728 2.281 0 1.308.681 2.203 1.699 2.203.91 0 1.553-.788 1.553-1.721v-1.081zm7.496.627c0 1.92 1.232 3.335 3.133 3.335 1.945 0 3.244-1.414 3.243-3.441 0-1.976-1.259-3.323-3.135-3.323-1.982 0-3.241 1.427-3.241 3.429zm3.187-2.376c-1.044 0-1.713.973-1.713 2.335 0 1.335.683 2.308 1.699 2.308 1.019 0 1.701-1.04 1.701-2.336.003-1.32-.667-2.307-1.687-2.307zm9.52 5.564h1.448v-3.884c0-1.694-.898-2.735-2.265-2.735-.883 0-1.674.441-2.062 1.135h-.04l-.068-1.002h-1.272c.04.667.053 1.282.053 1.855v4.631h1.448V13.4c0-.853.588-1.588 1.446-1.588.871 0 1.312.575 1.312 1.722v3.723zm11.181-5.403h-1.591v3.148c0 .802.279 1.202.842 1.202.255 0 .469-.027.642-.067l.04 1.094c-.281.107-.656.161-1.123.161-1.14 0-1.822-.627-1.822-2.269v-3.27h-.949v-1.08h.949V9.585l1.421-.428v1.614h1.591v1.083zm6.213 5.403h1.446V13.4c0-1.695-.842-2.762-2.22-2.762-.842 0-1.502.348-1.957 1.055h-.029V7.797h-1.446v9.46h1.446v-3.909c0-1.027.698-1.534 1.448-1.534.872 0 1.312.587 1.312 1.747v3.696zm9.292-2.895h-4.342c.028 1.227.844 1.92 2.051 1.92a4.91 4.91 0 001.755-.306l.225 1c-.616.268-1.34.401-2.184.401-2.036 0-3.241-1.281-3.241-3.268 0-1.989 1.234-3.483 3.078-3.483 1.664 0 2.707 1.228 2.707 3.083.01.218-.007.438-.049.653zm-2.758-2.735c.924 0 1.431.707 1.431 1.707h-3.013c.094-.987.751-1.707 1.582-1.707z" fill="#fff"/></svg>
